!!!!SEGMENT: pl-sa--l-1643--095_anonim--stabat-mater-dolorosa.krn
!!!cenid: 16xx:1453
!!!COM: Anonim
!!!COM-rismID: pe30004985
!!!CDT:
!!!CNT:
!!!OTL: Stabat Mater dolorosa
!!!PDT:
!!!AGN: Sacred
!!!SMS-siglum: PL-SA
!!!SMS-shelfmark: L 1643
!!!SMS-shelfwork: 091 W
!!!SMS-variant:
!!!SMS-altvar:
!!!NIFC-rismSourceID: 1001064745
!!!NIFC-rismChildID: 1001064745
!!!NIFC-islandoraID:
!!!URL-pdf-islandora:
!!!URL-scan:
!!!ONB-nifc: UWAGA: 8 ksiąg. Primi chori: 1mus Cantus (170-171), C 2dus (172-173), C 3tius (x), Bassus (168-169); Secondi chori: Primus Cantus (174-175), C 2dus (174-175), Altus (x), Bassus (169-170). UWAGA: Nie dodawać pustych linii, chyba że w rękopisie pojawiają się dodatkowe oznaczenia dotyczące pełnej obsady (a 4, a 8 itp.)
!!!AIN: 1 bass 5 soprn
!!!key: F:lyd
!!!finalis: f
**kern	**text	**text	**text	**text	**kern	**text	**text	**text	**text	**text	**text	**text	**text	**text	**text	**text	**text	**text	**text	**text	**text	**kern	**text	**text	**text	**text	**kern	**text	**text	**text	**text	**kern	**text	**text	**text	**text	**kern	**text	**text	**text	**text
*group2	*	*	*	*	*group2	*	*	*	*	*	*	*	*	*	*	*	*	*	*	*	*	*group2	*	*	*	*	*group1	*	*	*	*	*group1	*	*	*	*	*group1	*	*	*	*
*part6	*part6	*part6	*part6	*part6	*part5	*part5	*part5	*part5	*part5	*part5	*part5	*part5	*part5	*part5	*part5	*part5	*part5	*part5	*part5	*part5	*part5	*part4	*part4	*part4	*part4	*part4	*part3	*part3	*part3	*part3	*part3	*part2	*part2	*part2	*part2	*part2	*part1	*part1	*part1	*part1	*part1
*staff6	*staff6	*staff6	*staff6	*staff6	*staff5	*staff5	*staff5	*staff5	*staff5	*staff5	*staff5	*staff5	*staff5	*staff5	*staff5	*staff5	*staff5	*staff5	*staff5	*staff5	*staff5	*staff4	*staff4	*staff4	*staff4	*staff4	*staff3	*staff3	*staff3	*staff3	*staff3	*staff2	*staff2	*staff2	*staff2	*staff2	*staff1	*staff1	*staff1	*staff1	*staff1
*I"Baſsus 2di Chori	*	*	*	*	*I"Cantus 2dus Secundi Chori.	*	*	*	*	*	*	*	*	*	*	*	*	*	*	*	*	*I"Primus Cantus 2di Chori	*	*	*	*	*I"Bassus Primi Chori.	*	*	*	*	*I"Cantus 2dus Primi Chori.	*	*	*	*	*I"Cantus Primi Chori	*	*	*	*
*I'[Coro 2 B]	*	*	*	*	*I'[Coro 2 S 2]	*	*	*	*	*	*	*	*	*	*	*	*	*	*	*	*	*I'[Coro 2 S 1]	*	*	*	*	*I'[Coro 1 B]	*	*	*	*	*I'[Coro 1 S 2]	*	*	*	*	*I'[Coro 1 S 1]	*	*	*	*
*Isoprn	*	*	*	*	*Isoprn	*	*	*	*	*	*	*	*	*	*	*	*	*	*	*	*	*Isoprn	*	*	*	*	*Ibass	*	*	*	*	*Isoprn	*	*	*	*	*Isoprn	*	*	*	*
*ICvox	*	*	*	*	*ICvox	*	*	*	*	*	*	*	*	*	*	*	*	*	*	*	*	*ICvox	*	*	*	*	*ICvox	*	*	*	*	*ICvox	*	*	*	*	*ICvox	*	*	*	*
*clefC3	*	*	*	*	*clefC3	*	*	*	*	*	*	*	*	*	*	*	*	*	*	*	*	*clefG2	*	*	*	*	*clefC3	*	*	*	*	*clefC1	*	*	*	*	*clefG2	*	*	*	*
*k[b-]	*	*	*	*	*k[b-]	*	*	*	*	*	*	*	*	*	*	*	*	*	*	*	*	*k[b-]	*	*	*	*	*k[b-]	*	*	*	*	*k[b-]	*	*	*	*	*k[b-]	*	*	*	*
*F:lyd	*	*	*	*	*F:lyd	*	*	*	*	*	*	*	*	*	*	*	*	*	*	*	*	*F:lyd	*	*	*	*	*F:lyd	*	*	*	*	*F:lyd	*	*	*	*	*F:lyd	*	*	*	*
*M3/1	*	*	*	*	*M3/1	*	*	*	*	*	*	*	*	*	*	*	*	*	*	*	*	*M3/1	*	*	*	*	*M3/1	*	*	*	*	*M3/1	*	*	*	*	*M3/1	*	*	*	*
=1-	=1-	=1-	=1-	=1-	=1-	=1-	=1-	=1-	=1-	=1-	=1-	=1-	=1-	=1-	=1-	=1-	=1-	=1-	=1-	=1-	=1-	=1-	=1-	=1-	=1-	=1-	=1-	=1-	=1-	=1-	=1-	=1-	=1-	=1-	=1-	=1-	=1-	=1-	=1-	=1-	=1-
!	!	!	!	!	!	!	!	!	!	!	!	!	!	!	!	!	!	!	!	!	!	!	!	!	!	!	!	!	!	!	!	!	!	!	!	!	!LO:TX:t=P::problem=przed metrum trójdzielnym jest jeszcze oznaczenie alla breve, innymi słowy&colon; metrum parzyste oraz proporcja.	!	!	!	!
!	!	!	!	!	!	!	!	!	!	!	!	!	!	!	!	!	!	!	!	!	!	!	!	!	!	!	!	!	!	!	!	!	!	!	!	!	!LO:TX:b:rj:t=Ten głos sam tylko intonuie	!	!	!	!
!	!	!	!	!	!	!	!	!	!	!	!	!	!	!	!	!	!	!	!	!	!	!	!	!	!	!	!LO:TX:t=P::problem=przed metrum trójdzielnym jest jeszcze oznaczenie alla breve, innymi słowy&colon; metrum parzyste oraz proporcja.	!	!	!	!	!LO:TX:t=P::problem=przed metrum trójdzielnym jest jeszcze oznaczenie alla breve, innymi słowy&colon; metrum parzyste oraz proporcja.	!	!	!	!	!LO:TX:b:t=Plankt Grobowy o załoſney Boga Rodzice	!	!	!	!
!LO:TX:a:t=Plankt Grobowÿ o Żałoſney Boga Rodzice	!	!	!	!	!LO:TX:a:t=Plankt grobowy o Żałoſney Boga Rodzice	!	!	!	!	!	!	!	!	!	!	!	!	!	!	!	!	!LO:TX:a:t=Plankt Grobowy. o Żałoſneÿ Boga Rodzice	!	!	!	!	!LO:TX:a:t=Plankt Grobowÿ o Żałoſneÿ Boga Rodzice.	!	!	!	!	!LO:TX:a:t=Plankt Grobowÿ o Żałoſney Boga Rodzice	!	!	!	!	!LO:TX:t=P:problem=metrum trójdzielne jest zawsze 3/2, ale ze względu na podział nut w taktach transkrybujemy 3/1	!	!	!	!
00.r	.	.	.	.	00.r	.	.	.	.	.	.	.	.	.	.	.	.	.	.	.	.	00.r	.	.	.	.	00.r	.	.	.	.	00.r	.	.	.	.	0f	Sta-	Cu-	O	E-
.	.	.	.	.	.	.	.	.	.	.	.	.	.	.	.	.	.	.	.	.	.	.	.	.	.	.	.	.	.	.	.	.	.	.	.	.	1g	-bat	-ius	quam	-ia
=2-	=2-	=2-	=2-	=2-	=2-	=2-	=2-	=2-	=2-	=2-	=2-	=2-	=2-	=2-	=2-	=2-	=2-	=2-	=2-	=2-	=2-	=2-	=2-	=2-	=2-	=2-	=2-	=2-	=2-	=2-	=2-	=2-	=2-	=2-	=2-	=2-	=2-	=2-	=2-	=2-	=2-
.	.	.	.	.	.	.	.	.	.	.	.	.	.	.	.	.	.	.	.	.	.	.	.	.	.	.	.	.	.	.	.	.	.	.	.	.	0a	ma-	a-	tris-	Ma-
.	.	.	.	.	.	.	.	.	.	.	.	.	.	.	.	.	.	.	.	.	.	.	.	.	.	.	.	.	.	.	.	.	.	.	.	.	1a	-ter	-ni-	-tis	-ter
=3-	=3-	=3-	=3-	=3-	=3-	=3-	=3-	=3-	=3-	=3-	=3-	=3-	=3-	=3-	=3-	=3-	=3-	=3-	=3-	=3-	=3-	=3-	=3-	=3-	=3-	=3-	=3-	=3-	=3-	=3-	=3-	=3-	=3-	=3-	=3-	=3-	=3-	=3-	=3-	=3-	=3-
00.r	.	.	.	.	00.r	.	.	.	.	.	.	.	.	.	.	.	.	.	.	.	.	00.r	.	.	.	.	00.r	.	.	.	.	00.r	.	.	.	.	0b-	Do-	-mam	et	fons
.	.	.	.	.	.	.	.	.	.	.	.	.	.	.	.	.	.	.	.	.	.	.	.	.	.	.	.	.	.	.	.	.	.	.	.	.	1a	-lo-	do-	af-	a-
=4-	=4-	=4-	=4-	=4-	=4-	=4-	=4-	=4-	=4-	=4-	=4-	=4-	=4-	=4-	=4-	=4-	=4-	=4-	=4-	=4-	=4-	=4-	=4-	=4-	=4-	=4-	=4-	=4-	=4-	=4-	=4-	=4-	=4-	=4-	=4-	=4-	=4-	=4-	=4-	=4-	=4-
.	.	.	.	.	.	.	.	.	.	.	.	.	.	.	.	.	.	.	.	.	.	.	.	.	.	.	.	.	.	.	.	.	.	.	.	.	0g	-ro-	-len-	-fli-	-mo-
.	.	.	.	.	.	.	.	.	.	.	.	.	.	.	.	.	.	.	.	.	.	.	.	.	.	.	.	.	.	.	.	.	.	.	.	.	1f	-ſa	-tem	-cta	-ris
=5-	=5-	=5-	=5-	=5-	=5-	=5-	=5-	=5-	=5-	=5-	=5-	=5-	=5-	=5-	=5-	=5-	=5-	=5-	=5-	=5-	=5-	=5-	=5-	=5-	=5-	=5-	=5-	=5-	=5-	=5-	=5-	=5-	=5-	=5-	=5-	=5-	=5-	=5-	=5-	=5-	=5-
!	!	!	!	!	!LO:TX:t=P:problem=zwrotka czwarta wykreślona i wpisana później	!	!	!	!	!	!	!	!	!	!	!	!	!	!	!	!	!	!	!	!	!	!	!	!	!	!	!	!	!	!	!	!	!	!	!	!
0F	Sta-	Cu-	O	E-	0f	Sta-	Cu-	O	Que	Quis	Quis	Pro	Ui-	E-	Fac	San-	Tu-	Fac	Ju-	Uir-	Fac	0cc	Sta-	Cu-	O	E-	0f	Sta-	Cu-	O	E-	0f	Sta-	Cu-	O	E-	00.r	.	.	.	.
1c	-bat	-ius	quam	-ia	1e	-bat	-ius	quam	me-	est	non	pec-	-dit	-ia	ut	-cta	-i-	me	-xta	-go	ut	1cc	-bat	-ius	quam	-ia	1c	-bat	-ius	quam	-ia	1g	-bat	-ius	Quam	-ia	.	.	.	.	.
=6-	=6-	=6-	=6-	=6-	=6-	=6-	=6-	=6-	=6-	=6-	=6-	=6-	=6-	=6-	=6-	=6-	=6-	=6-	=6-	=6-	=6-	=6-	=6-	=6-	=6-	=6-	=6-	=6-	=6-	=6-	=6-	=6-	=6-	=6-	=6-	=6-	=6-	=6-	=6-	=6-	=6-
0A	Ma-	a-	triſ-	Ma-	0e	Ma-	a-	triſ-	-re-	ho-	poſ-	-ca-	su-	ma-	ar-	ma-	-na-	ue-	cru-	uir-	por-	0cc	Ma-	a-	triſ-	Ma-	0c	Ma-	a-	triſ-	Ma-	0a	Ma-	a-	triſ-	Ma-	.	.	.	.	.
1F	-ter	-ni-	-tis	-ter	1f	-ter	-ni-	-tis	-bat	-mo	-ſet	-tis	-um	-ter	-de-	-ter	-ti	-re	-cem	-gi-	-tem	1cc	-ter	-ni-	-tis	-ter	1f	-ter	-ni-	-tis	-ter	1a	-ter	-ni-	-tis	-ter	.	.	.	.	.
=7-	=7-	=7-	=7-	=7-	=7-	=7-	=7-	=7-	=7-	=7-	=7-	=7-	=7-	=7-	=7-	=7-	=7-	=7-	=7-	=7-	=7-	=7-	=7-	=7-	=7-	=7-	=7-	=7-	=7-	=7-	=7-	=7-	=7-	=7-	=7-	=7-	=7-	=7-	=7-	=7-	=7-
0B-	Do-	-mam	et	fons	1.d	Do-	-mam	et	et	qui	con-	su-	dul-	fons	-at	fons	Uul-	te-	te-	-num	Chri-	0dd	Do-	-mam	et	fons	0B-	do-	-mam	et	fons	0b-	Do-	-mam	et	fons	00.r	.	.	.	.
.	.	.	.	.	2e\	.	.	.	.	.	.	.	.	.	.	.	.	.	.	.	.	.	.	.	.	.	.	.	.	.	.	.	.	.	.	.	.	.	.	.	.
1F	-lo-	ge-	aff-	a-	1f	-lo-	ge-	af-	do-	non	-tri-	-e	-cem	a-	cor	a-	-ne-	-cum	-cum	pre-	-sti	1cc	-lo-	ge-	af-	a-	1f	-lo-	ge-	af-	a-	1a	-lo-	ge-	af-	a-	.	.	.	.	.
=8-	=8-	=8-	=8-	=8-	=8-	=8-	=8-	=8-	=8-	=8-	=8-	=8-	=8-	=8-	=8-	=8-	=8-	=8-	=8-	=8-	=8-	=8-	=8-	=8-	=8-	=8-	=8-	=8-	=8-	=8-	=8-	=8-	=8-	=8-	=8-	=8-	=8-	=8-	=8-	=8-	=8-
0c	-ro-	-men-	-lic-	-mo-	0e	-ro-	-men-	-flic-	-le-	fle-	-sta-	gen-	na-	-mo-	[m]e-	-mo-	-ra-	fle-	sta-	-cla-	mor-	0cc	-ro-	-men-	-flic-	-mo-	0c	-ro-	-men-	-flic-	-mo-	0g	-r[o]-	-men-	-fli-	-mo-	.	.	.	.	.
1F	-ſa	-te(m)	-ta	-ris	1f	-ſa	-tem	-ta	-bant	-ret	-ri,	-tis,	-tum,	-ris,	-um,	-ris,	-ti.	-re	-re,	-ra,	-tem,	1cc	-ſa	-tem	-ta	-ris	1f	-ſa	-tem	-ta	-ris	1f	-ſa	-tem	-cta	-ris	.	.	.	.	.
=9-	=9-	=9-	=9-	=9-	=9-	=9-	=9-	=9-	=9-	=9-	=9-	=9-	=9-	=9-	=9-	=9-	=9-	=9-	=9-	=9-	=9-	=9-	=9-	=9-	=9-	=9-	=9-	=9-	=9-	=9-	=9-	=9-	=9-	=9-	=9-	=9-	=9-	=9-	=9-	=9-	=9-
00.r	.	.	.	.	00.r	.	.	.	.	.	.	.	.	.	.	.	.	.	.	.	.	00.r	.	.	.	.	00.r	.	.	.	.	00.r	.	.	.	.	0cc	iu-	C[u]-	fu-	Me
.	.	.	.	.	.	.	.	.	.	.	.	.	.	.	.	.	.	.	.	.	.	.	.	.	.	.	.	.	.	.	.	.	.	.	.	.	1b-	-xta	-i-	-it	ſen-
=10-	=10-	=10-	=10-	=10-	=10-	=10-	=10-	=10-	=10-	=10-	=10-	=10-	=10-	=10-	=10-	=10-	=10-	=10-	=10-	=10-	=10-	=10-	=10-	=10-	=10-	=10-	=10-	=10-	=10-	=10-	=10-	=10-	=10-	=10-	=10-	=10-	=10-	=10-	=10-	=10-	=10-
.	.	.	.	.	.	.	.	.	.	.	.	.	.	.	.	.	.	.	.	.	.	.	.	.	.	.	.	.	.	.	.	.	.	.	.	.	0a	cru-	-ſtan-	il-	-ti-
.	.	.	.	.	.	.	.	.	.	.	.	.	.	.	.	.	.	.	.	.	.	.	.	.	.	.	.	.	.	.	.	.	.	.	.	.	1g	-cem	-tem	-la	-re
=11-	=11-	=11-	=11-	=11-	=11-	=11-	=11-	=11-	=11-	=11-	=11-	=11-	=11-	=11-	=11-	=11-	=11-	=11-	=11-	=11-	=11-	=11-	=11-	=11-	=11-	=11-	=11-	=11-	=11-	=11-	=11-	=11-	=11-	=11-	=11-	=11-	=11-	=11-	=11-	=11-	=11-
00.r	.	.	.	.	00.r	.	.	.	.	.	.	.	.	.	.	.	.	.	.	.	.	00.r	.	.	.	.	00.r	.	.	.	.	00.r	.	.	.	.	0b-	la-	ed	Be-	Vim
.	.	.	.	.	.	.	.	.	.	.	.	.	.	.	.	.	.	.	.	.	.	.	.	.	.	.	.	.	.	.	.	.	.	.	.	.	1a	-chry-	do-	-ne-	do-
!	!	!	!	!	!	!	!	!	!	!	!	!	!	!	!	!	!	!	!	!	!	!	!	!	!	!	!	!	!	!	!	!	!	!	!	!	!LO:PB:g=original	!	!	!	!
=12-	=12-	=12-	=12-	=12-	=12-	=12-	=12-	=12-	=12-	=12-	=12-	=12-	=12-	=12-	=12-	=12-	=12-	=12-	=12-	=12-	=12-	=12-	=12-	=12-	=12-	=12-	=12-	=12-	=12-	=12-	=12-	=12-	=12-	=12-	=12-	=12-	=12-	=12-	=12-	=12-	=12-
.	.	.	.	.	.	.	.	.	.	.	.	.	.	.	.	.	.	.	.	.	.	.	.	.	.	.	.	.	.	.	.	.	.	.	.	.	0g	-mo-	-len-	-dic-	-lo-
.	.	.	.	.	.	.	.	.	.	.	.	.	.	.	.	.	.	.	.	.	.	.	.	.	.	.	.	.	.	.	.	.	.	.	.	.	1f	-ſa	-tem	-ta	-ris
=13-	=13-	=13-	=13-	=13-	=13-	=13-	=13-	=13-	=13-	=13-	=13-	=13-	=13-	=13-	=13-	=13-	=13-	=13-	=13-	=13-	=13-	=13-	=13-	=13-	=13-	=13-	=13-	=13-	=13-	=13-	=13-	=13-	=13-	=13-	=13-	=13-	=13-	=13-	=13-	=13-	=13-
0F	Iu-	Con-	Fu-	Me	0a	Ju-	Con-	Fu-	Et	Chri-	Pi-	Ui-	Mo-	me	In	Cru-	Tam	Cru-	Te	Mi-	Pa-	0a	iu-	Con-	Fu-	Me	1.f	Ju-	Con-	Fu-	Me	0cc	iu-	Con-	Fu-	Me	00.r	.	.	.	.
.	.	.	.	.	.	.	.	.	.	.	.	.	.	.	.	.	.	.	.	.	.	.	.	.	.	.	2e\	.	.	.	.	.	.	.	.	.	.	.	.	.	.
1B-	-xta	-triſ-	-it	ſen-	1f	-xta	-triſ-	-it	tre-	-sti	-a	-dit	-ri-	sen-	a-	-ci-	di-	-ci-	li-	-hi	-si-	1b-	-xta	-tri-	-it	sen-	1d	-xta	-tri	-it	ſen-	1b-	-xta	-tri-	-it	ſen-	.	.	.	.	.
=14-	=14-	=14-	=14-	=14-	=14-	=14-	=14-	=14-	=14-	=14-	=14-	=14-	=14-	=14-	=14-	=14-	=14-	=14-	=14-	=14-	=14-	=14-	=14-	=14-	=14-	=14-	=14-	=14-	=14-	=14-	=14-	=14-	=14-	=14-	=14-	=14-	=14-	=14-	=14-	=14-	=14-
0F	cru-	-tan-	il-	-ti-	0a	cru-	-tan-	il-	-me-	ma-	m-	Je-	-en-	-ti-	-man-	-fi-	-gna-	-fi-	-ben-	iam	-o-	0cc	cru-	-stan-	il-	-ti-	0f	cru-	ſtan-	il-	-ti-	0a	cru-	-ſtan-	il-	-ti-	.	.	.	.	.
1c	-ce(m)	-tem	-la	-re	1e	-ce(m)	-tem	-la	-bat	-trem	-m	-sum	-tem	-re	-do	-xi	-ti	-xo	-ter	non	-nis	1cc	-cem	-tem	-la	-re	1c	-cem	-tem	-la	-re	1g	-cem	-te(m)	-la	-re	.	.	.	.	.
=15-	=15-	=15-	=15-	=15-	=15-	=15-	=15-	=15-	=15-	=15-	=15-	=15-	=15-	=15-	=15-	=15-	=15-	=15-	=15-	=15-	=15-	=15-	=15-	=15-	=15-	=15-	=15-	=15-	=15-	=15-	=15-	=15-	=15-	=15-	=15-	=15-	=15-	=15-	=15-	=15-	=15-
0B-	La-	et	Be-	Vim	0f	la-	et	Be-	cum	si	Con-	in	de-	uim	Chri-	fi-	pro	Con-	so-	sis	e-	0dd	la-	et	Be-	Vim	1.d	la-	[e]t	Be-	Vim	0b-	la-	et	Be-	Vim	00.r	.	.	.	.
.	.	.	.	.	.	.	.	.	.	.	.	.	.	.	.	.	.	.	.	.	.	.	.	.	.	.	2e\	.	.	.	.	.	.	.	.	.	.	.	.	.	.
!	!	!	!	!	!LO:PB:g=original	!	!	!	!	!	!	!	!	!	!	!	!	!	!	!	!	!	!	!	!	!	!LO:PB:g=original	!	!	!	!	!	!	!	!	!	!	!	!	!	!
1F	-chry-	do-	-ne-	do-	1f	-chry-	do-	-ne-	ui-	ui-	-tem-	tor-	-so-	do-	-stum	-ge	me	-do-	-ci-	a-	-ius	1cc	-chry-	do-	-ne-	do-	1f	-chry-	do-	-ne-	do-	1a	-chry-	do-	-ne-	do-	.	.	.	.	.
!	!	!	!	!	!	!	!	!	!	!	!	!	!	!	!	!	!	!	!	!	!	!	!	!	!	!	!	!	!	!	!	!LO:PB:g=original	!	!	!	!	!	!	!	!	!
=16-	=16-	=16-	=16-	=16-	=16-	=16-	=16-	=16-	=16-	=16-	=16-	=16-	=16-	=16-	=16-	=16-	=16-	=16-	=16-	=16-	=16-	=16-	=16-	=16-	=16-	=16-	=16-	=16-	=16-	=16-	=16-	=16-	=16-	=16-	=16-	=16-	=16-	=16-	=16-	=16-	=16-
0c	-mo-	-len-	-dic-	-lo-	0e	-mo-	-len-	-dic-	-de-	-de-	-pla-	-men-	-la-	-lo-	De-	pla-	pa-	-le-	-a-	-ma-	sor-	0cc	-mo-	-len-	-dic-	-lo-	0c	-mo-	-len-	-dic-	-lo-	0g	-mo-	-len-	-dic-	-lo-	.	.	.	.	.
1F	-ſa	-tem.	-ta	-ris	1f	-ſa	-tem	-ta	-bat,	-ret,	-ri,	-tis,	-tum	-ris,	-um,	-gas,	-ti,	-re,	-re,	-ra,	-tem,	1cc	-ſa	-tem	-ta	-ris	1f	-ſa	-tem	-ta	-ris	1f	-ſa	-tem	-ta	-ris	.	.	.	.	.
!LO:PB:g=original	!	!	!	!	!	!	!	!	!	!	!	!	!	!	!	!	!	!	!	!	!	!LO:PB:g=original	!	!	!	!	!	!	!	!	!	!	!	!	!	!	!	!	!	!	!
=17-	=17-	=17-	=17-	=17-	=17-	=17-	=17-	=17-	=17-	=17-	=17-	=17-	=17-	=17-	=17-	=17-	=17-	=17-	=17-	=17-	=17-	=17-	=17-	=17-	=17-	=17-	=17-	=17-	=17-	=17-	=17-	=17-	=17-	=17-	=17-	=17-	=17-	=17-	=17-	=17-	=17-
00.r	.	.	.	.	00.r	.	.	.	.	.	.	.	.	.	.	.	.	.	.	.	.	00.r	.	.	.	.	00.r	.	.	.	.	00.r	.	.	.	.	0g	Dum	Per	Ma-	Fac
.	.	.	.	.	.	.	.	.	.	.	.	.	.	.	.	.	.	.	.	.	.	.	.	.	.	.	.	.	.	.	.	.	.	.	.	.	1g	pen-	tran-	-ter	Vt
=18-	=18-	=18-	=18-	=18-	=18-	=18-	=18-	=18-	=18-	=18-	=18-	=18-	=18-	=18-	=18-	=18-	=18-	=18-	=18-	=18-	=18-	=18-	=18-	=18-	=18-	=18-	=18-	=18-	=18-	=18-	=18-	=18-	=18-	=18-	=18-	=18-	=18-	=18-	=18-	=18-	=18-
.	.	.	.	.	.	.	.	.	.	.	.	.	.	.	.	.	.	.	.	.	.	.	.	.	.	.	.	.	.	.	.	.	.	.	.	.	0g	-de-	-ſi-	V-	te-
.	.	.	.	.	.	.	.	.	.	.	.	.	.	.	.	.	.	.	.	.	.	.	.	.	.	.	.	.	.	.	.	.	.	.	.	.	1a	-bat	-ui	-ni-	-cum
=19-	=19-	=19-	=19-	=19-	=19-	=19-	=19-	=19-	=19-	=19-	=19-	=19-	=19-	=19-	=19-	=19-	=19-	=19-	=19-	=19-	=19-	=19-	=19-	=19-	=19-	=19-	=19-	=19-	=19-	=19-	=19-	=19-	=19-	=19-	=19-	=19-	=19-	=19-	=19-	=19-	=19-
00.r	.	.	.	.	00.r	.	.	.	.	.	.	.	.	.	.	.	.	.	.	.	.	00.r	.	.	.	.	00.r	.	.	.	.	00.r	.	.	.	.	0g	Fi-	gla-	-ge-	lu-
.	.	.	.	.	.	.	.	.	.	.	.	.	.	.	.	.	.	.	.	.	.	.	.	.	.	.	.	.	.	.	.	.	.	.	.	.	1g	-li-	-di-	-ni-	-ge-
=20-	=20-	=20-	=20-	=20-	=20-	=20-	=20-	=20-	=20-	=20-	=20-	=20-	=20-	=20-	=20-	=20-	=20-	=20-	=20-	=20-	=20-	=20-	=20-	=20-	=20-	=20-	=20-	=20-	=20-	=20-	=20-	=20-	=20-	=20-	=20-	=20-	=20-	=20-	=20-	=20-	=20-
.	.	.	.	.	.	.	.	.	.	.	.	.	.	.	.	.	.	.	.	.	.	.	.	.	.	.	.	.	.	.	.	.	.	.	.	.	0.f	-us	-us	-ti	-am
=21-	=21-	=21-	=21-	=21-	=21-	=21-	=21-	=21-	=21-	=21-	=21-	=21-	=21-	=21-	=21-	=21-	=21-	=21-	=21-	=21-	=21-	=21-	=21-	=21-	=21-	=21-	=21-	=21-	=21-	=21-	=21-	=21-	=21-	=21-	=21-	=21-	=21-	=21-	=21-	=21-	=21-
0c	Dum	Per	Ma-	Fac	0e	Dum	Per	Ma-	Na-	In	Do-	Et	Dum	Fac	Ut	Cor-	Pe-	De-	In	Fac	Et	0cc	Dum	Per	Ma-	Fac	0c	Dum	Per	Ma-	Fac	0g	Dum	Per	Ma-	Fac	00.r	.	.	.	.
1G	pen-	tran-	-ter	Vt	1d	pen-	tran-	-ter	-ti	tan-	-len-	ffla-	e-	ut	si-	-di	-nas	-nec	plan-	me	pla-	1b-	Pen-	tran-	-ter	Vt	1g	pen-	tran-	-ter	Vt	1g	Pen-	tran-	-ter	Vt	.	.	.	.	.
=22-	=22-	=22-	=22-	=22-	=22-	=22-	=22-	=22-	=22-	=22-	=22-	=22-	=22-	=22-	=22-	=22-	=22-	=22-	=22-	=22-	=22-	=22-	=22-	=22-	=22-	=22-	=22-	=22-	=22-	=22-	=22-	=22-	=22-	=22-	=22-	=22-	=22-	=22-	=22-	=22-	=22-
0c	-de-	-ſi-	V-	te-	0g	-de-	-ſi-	u-	pe-	-to	-tem	-giel-	-mi-	te-	-bi	me-	me-	e-	-ctu	te-	-gas	0cc	-de-	-ſi-	V-	te-	0e	-de-	-ſi-	V-	te-	0g	-de-	-ſi-	U-	te-	.	.	.	.	.
1F	-bat	-uit	-ni-	-cum	1f	-bat	-uit	-ni-	-nas	su-	cum	-lis	-sit	-cum	com-	-o	-cum	-go	de-	-cum	re-	1a	-bat	-uit	-ni-	-cum	1c	-bat	-uit	-ni-	-cum	1a	-bat	-uit	-ni-	-cum	.	.	.	.	.
=23-	=23-	=23-	=23-	=23-	=23-	=23-	=23-	=23-	=23-	=23-	=23-	=23-	=23-	=23-	=23-	=23-	=23-	=23-	=23-	=23-	=23-	=23-	=23-	=23-	=23-	=23-	=23-	=23-	=23-	=23-	=23-	=23-	=23-	=23-	=23-	=23-	=23-	=23-	=23-	=23-	=23-
0c	Fi-	gla-	-ge-	lu-	0e	Fi-	gla-	-ge-	In-	-pli-	fi-	sub-	spi-	lu-	-pla-	ua-	di-	ui-	-si-	plan-	-co-	0cc	Fi-	gla-	-ge-	lu-	0c	Fi-	gla-	-ge-	lu-	0g	Fi-	gla-	-[ge]-	lu-	00.r	.	.	.	.
1c	-li-	-di-	-ni-	-ge-	1e	-li-	-di-	-ni-	-cli-	-ci-	-li-	-di-	-ri-	-ge-	-ce-	-li-	-ui-	-xe-	-de-	-ge-	-le-	1cc	-li-	-di-	-ni-	-ge-	1c	-li-	-di-	-ni-	-ge-	1g	-li-	-[di]-	-ni-	-ge-	.	.	.	.	.
=24-	=24-	=24-	=24-	=24-	=24-	=24-	=24-	=24-	=24-	=24-	=24-	=24-	=24-	=24-	=24-	=24-	=24-	=24-	=24-	=24-	=24-	=24-	=24-	=24-	=24-	=24-	=24-	=24-	=24-	=24-	=24-	=24-	=24-	=24-	=24-	=24-	=24-	=24-	=24-	=24-	=24-
0.F	-us	-us	-ti	-am	0.f	-us	-us	-ti	-ti,	-o,	-o,	-tum,	-tum,	-am	-am	-de,	-de.	-ro,	-ro,	-re.	-re,	0.a	-us	-us	-ti.	-am	0.f	-us	-us	-ti	-a(m)	0.f	-us	-us	-ti	-am	.	.	.	.	.
=25-	=25-	=25-	=25-	=25-	=25-	=25-	=25-	=25-	=25-	=25-	=25-	=25-	=25-	=25-	=25-	=25-	=25-	=25-	=25-	=25-	=25-	=25-	=25-	=25-	=25-	=25-	=25-	=25-	=25-	=25-	=25-	=25-	=25-	=25-	=25-	=25-	=25-	=25-	=25-	=25-	=25-
00.r	.	.	.	.	00.r	.	.	.	.	.	.	.	.	.	.	.	.	.	.	.	.	00.r	.	.	.	.	00.r	.	.	.	.	00.r	.	.	.	.	0cc	Dum	Per	Ma-	Fac
.	.	.	.	.	.	.	.	.	.	.	.	.	.	.	.	.	.	.	.	.	.	.	.	.	.	.	.	.	.	.	.	.	.	.	.	.	1dd	Pen-	tran-	-ter	Vt
=26-	=26-	=26-	=26-	=26-	=26-	=26-	=26-	=26-	=26-	=26-	=26-	=26-	=26-	=26-	=26-	=26-	=26-	=26-	=26-	=26-	=26-	=26-	=26-	=26-	=26-	=26-	=26-	=26-	=26-	=26-	=26-	=26-	=26-	=26-	=26-	=26-	=26-	=26-	=26-	=26-	=26-
.	.	.	.	.	.	.	.	.	.	.	.	.	.	.	.	.	.	.	.	.	.	.	.	.	.	.	.	.	.	.	.	.	.	.	.	.	0ee	-de-	-ſi-	V-	te-
.	.	.	.	.	.	.	.	.	.	.	.	.	.	.	.	.	.	.	.	.	.	.	.	.	.	.	.	.	.	.	.	.	.	.	.	.	1ff	-bat	-uit	-ni-	-cum
=27-	=27-	=27-	=27-	=27-	=27-	=27-	=27-	=27-	=27-	=27-	=27-	=27-	=27-	=27-	=27-	=27-	=27-	=27-	=27-	=27-	=27-	=27-	=27-	=27-	=27-	=27-	=27-	=27-	=27-	=27-	=27-	=27-	=27-	=27-	=27-	=27-	=27-	=27-	=27-	=27-	=27-
00.r	.	.	.	.	00.r	.	.	.	.	.	.	.	.	.	.	.	.	.	.	.	.	00.r	.	.	.	.	00.r	.	.	.	.	00.r	.	.	.	.	0ee	Fi-	gla-	-ge-	lu-
.	.	.	.	.	.	.	.	.	.	.	.	.	.	.	.	.	.	.	.	.	.	.	.	.	.	.	.	.	.	.	.	.	.	.	.	.	1ee	-li-	-di-	-ni-	-ge-
=28-	=28-	=28-	=28-	=28-	=28-	=28-	=28-	=28-	=28-	=28-	=28-	=28-	=28-	=28-	=28-	=28-	=28-	=28-	=28-	=28-	=28-	=28-	=28-	=28-	=28-	=28-	=28-	=28-	=28-	=28-	=28-	=28-	=28-	=28-	=28-	=28-	=28-	=28-	=28-	=28-	=28-
.	.	.	.	.	.	.	.	.	.	.	.	.	.	.	.	.	.	.	.	.	.	.	.	.	.	.	.	.	.	.	.	.	.	.	.	.	0.ff	-us	-us	-ti	-am
=29-	=29-	=29-	=29-	=29-	=29-	=29-	=29-	=29-	=29-	=29-	=29-	=29-	=29-	=29-	=29-	=29-	=29-	=29-	=29-	=29-	=29-	=29-	=29-	=29-	=29-	=29-	=29-	=29-	=29-	=29-	=29-	=29-	=29-	=29-	=29-	=29-	=29-	=29-	=29-	=29-	=29-
2c/	Dum	Per	Ma-	Fac	0g	Dum	Per	Ma-	na-	In	Do-	Et	Dum	fac	Ut	Cor-	Pe-	Do-	In	Fac	Et	0cc	Dum	Per	Ma-	Fac	0c	Du(m)	Per	Ma-	Fac	0cc	Dum	Per	Ma-	Fac	00.r	.	.	.	.
2d\	.	.	.	.	.	.	.	.	.	.	.	.	.	.	.	.	.	.	.	.	.	.	.	.	.	.	.	.	.	.	.	.	.	.	.	.	.	.	.	.	.
2e\	.	.	.	.	.	.	.	.	.	.	.	.	.	.	.	.	.	.	.	.	.	.	.	.	.	.	.	.	.	.	.	.	.	.	.	.	.	.	.	.	.
2f\	.	.	.	.	.	.	.	.	.	.	.	.	.	.	.	.	.	.	.	.	.	.	.	.	.	.	.	.	.	.	.	.	.	.	.	.	.	.	.	.	.
1g,>	Pen-	tran-	-ter	Vt	1g	Pen-	tran-	-ter	-ti	tan-	-len-	fla-	e-	ut	si-	-di	-nas	-nec	pan-	me	pla-	1dd	pen-	tran-	-ter	Vt	1G	pen-	tran-	-ter	Vt	1b-	pen-	tran-	-ter	Vt	.	.	.	.	.
=30-	=30-	=30-	=30-	=30-	=30-	=30-	=30-	=30-	=30-	=30-	=30-	=30-	=30-	=30-	=30-	=30-	=30-	=30-	=30-	=30-	=30-	=30-	=30-	=30-	=30-	=30-	=30-	=30-	=30-	=30-	=30-	=30-	=30-	=30-	=30-	=30-	=30-	=30-	=30-	=30-	=30-
0e	-de-	-ſi-	V-	te-	0g	-de-	-ſi-	V-	pe-	-to	-tem	-ge-	-mi-	te-	-bi	me-	me-	e-	-ctu	te-	-cas	0ee	-de-	-ſi-	V-	te-	0c	-de-	-ſi-	V-	te-	0cc	-de-	-ſi-	V-	te-	.	.	.	.	.
1c	-bat	-uit	-ni-	-cum	1a	-bat	-uit	-ni-	-na	su-	cum	-lis	-ſit	-cum	Com-	-o	-cum	-go	de-	-cum	re-	1ff	-bat	-uit	-ni-	-cum	1F	-bat	-uit	-ni-	-cum	1a	-bat	-uit	-ni-	-cu(m)	.	.	.	.	.
=31-	=31-	=31-	=31-	=31-	=31-	=31-	=31-	=31-	=31-	=31-	=31-	=31-	=31-	=31-	=31-	=31-	=31-	=31-	=31-	=31-	=31-	=31-	=31-	=31-	=31-	=31-	=31-	=31-	=31-	=31-	=31-	=31-	=31-	=31-	=31-	=31-	=31-	=31-	=31-	=31-	=31-
0c	Fi-	gla-	-ge-	lu-	0g	Fi-	gla-	-ge-	in-	-li-	fi-	sub-	spi-	lu-	-pla-	ua-	di-	ui-	-si-	plan-	-co-	0ee	Fi-	gla-	-ge-	lu-	0c	Fi-	gla-	-ge-	lu-	0cc	Fi-	gla-	-ge-	lu-	00.r	.	.	.	.
1c	-li-	-di-	-ni-	-ge-	1g	-li-	-di-	-ni-	-cli-	-ci-	-li-	-di-	-ri-	-ge-	-ce-	-li-	-ui-	-xe-	-de-	-ge-	-le-	1ee	-li-	-di-	-ni-	-ge-	1c	-li-	-di-	-ni-	-ge-	1cc	-li-	-di-	-ni-	-ge-	.	.	.	.	.
=32-	=32-	=32-	=32-	=32-	=32-	=32-	=32-	=32-	=32-	=32-	=32-	=32-	=32-	=32-	=32-	=32-	=32-	=32-	=32-	=32-	=32-	=32-	=32-	=32-	=32-	=32-	=32-	=32-	=32-	=32-	=32-	=32-	=32-	=32-	=32-	=32-	=32-	=32-	=32-	=32-	=32-
0.f	-us	-us	-ti	-am	0.f	-us	-us	-ti	-ti.	-o.	-o	-tu,	-tum.	-am,	-at.	-de.	-de.	-ro.	-ro	-re	-re.	0.ff	-us	-us	-ti.	-am	0.F	-us	-us	-ti	-a(m)	0.a	-us.	-us	-ti	-am	.	.	.	.	.
=33-	=33-	=33-	=33-	=33-	=33-	=33-	=33-	=33-	=33-	=33-	=33-	=33-	=33-	=33-	=33-	=33-	=33-	=33-	=33-	=33-	=33-	=33-	=33-	=33-	=33-	=33-	=33-	=33-	=33-	=33-	=33-	=33-	=33-	=33-	=33-	=33-	=33-	=33-	=33-	=33-	=33-
*	*ij	*ij	*ij	*ij	*	*ij	*ij	*ij	*ij	*ij	*ij	*ij	*ij	*ij	*ij	*ij	*ij	*ij	*ij	*ij	*ij	*	*ij	*ij	*ij	*ij	*	*	*	*	*	*	*ij	*ij	*ij	*ij	*	*ij	*ij	*ij	*ij
0c	Dum	Per	Ma-	Fac	0g	Dum	Per	Ma-	na-	In	Do-	Et	Dum	fac	Ut	cor-	Pe-	Do-	In	Fac	Et	0ee	Dum	Per	Ma-	Fac	2c\	Dum	Per	Ma-	Fac	0g	Dum	Per	Ma-	Fac	0cc	Dum	Per	Ma-	Fac
.	.	.	.	.	.	.	.	.	.	.	.	.	.	.	.	.	.	.	.	.	.	.	.	.	.	.	2d\	.	.	.	.	.	.	.	.	.	.	.	.	.	.
.	.	.	.	.	.	.	.	.	.	.	.	.	.	.	.	.	.	.	.	.	.	.	.	.	.	.	2e\	.	.	.	.	.	.	.	.	.	.	.	.	.	.
.	.	.	.	.	.	.	.	.	.	.	.	.	.	.	.	.	.	.	.	.	.	.	.	.	.	.	2f\	.	.	.	.	.	.	.	.	.	.	.	.	.	.
1G	Pen-	tran-	-ter	Vt	1d	Pen-	tran-	-ter	-ti	tan-	-len-	fla-	e-	ut	si-	-di	-nas	-nec	pan-	me	pla-	1dd	pen-	tran-	-ter	Vt	1g	Pen-	tran-	-ter	Vt	1g	pen-	tran-	-ter	Vt	1dd	Pen-	tran-	-ter	Vt
=34-	=34-	=34-	=34-	=34-	=34-	=34-	=34-	=34-	=34-	=34-	=34-	=34-	=34-	=34-	=34-	=34-	=34-	=34-	=34-	=34-	=34-	=34-	=34-	=34-	=34-	=34-	=34-	=34-	=34-	=34-	=34-	=34-	=34-	=34-	=34-	=34-	=34-	=34-	=34-	=34-	=34-
*	*	*	*	*	*lig	*	*	*	*	*	*	*	*	*	*	*	*	*	*	*	*	*	*	*	*	*	*	*	*	*	*	*	*	*	*	*	*	*	*	*	*
0c	-de-	-ſi-	V-	te-	1e	-de-	-ſi-	V-	pe-	-to	-tem	-ge-	-mi-	te-	-bi	me-	me-	e-	-ctu	te-	-cas	1.cc	-de-	-ſi-	V-	te-	0e	-de-	-ſi-	V-	te-	0g	-de-	-ſi-	V-	te-	0ee	-de-	-ſi-	V-	te-
.	.	.	.	.	1c	.	.	.	.	.	.	.	.	.	.	.	.	.	.	.	.	.	.	.	.	.	.	.	.	.	.	.	.	.	.	.	.	.	.	.	.
.	.	.	.	.	.	.	.	.	.	.	.	.	.	.	.	.	.	.	.	.	.	2b-/	.	.	.	.	.	.	.	.	.	.	.	.	.	.	.	.	.	.	.
*	*	*	*	*	*Xlig	*	*	*	*	*	*	*	*	*	*	*	*	*	*	*	*	*	*	*	*	*	*	*	*	*	*	*	*	*	*	*	*	*	*	*	*
1F	-bat	-uit	-ni-	-cum	1f	-bat	-uit	-ni-	-na	su-	cum	-lis	-ſit	-cum	Com-	-o	-cum	-go	de-	-cum	re-	1a	-bat	-uit	-ni-	-cum	1c	-ba	-uit	-ni-	-cu(m)	1a	-bat	-uit	-ni-	-cu(m)	1ff	-bat	-uit	-ni-	-cum
=35-	=35-	=35-	=35-	=35-	=35-	=35-	=35-	=35-	=35-	=35-	=35-	=35-	=35-	=35-	=35-	=35-	=35-	=35-	=35-	=35-	=35-	=35-	=35-	=35-	=35-	=35-	=35-	=35-	=35-	=35-	=35-	=35-	=35-	=35-	=35-	=35-	=35-	=35-	=35-	=35-	=35-
0c	Fi-	gla-	-ge-	lu-	0e	Fi-	gla-	-ge-	in-	-pli-	fi-	sub-	spi-	lu-	-pla-	ua-	di-	ui-	-si-	plan-	-co-	0cc	Fi-	gla-	-ge-	lu-	0c	Fi-	gla-	-ge-	lu-	0g	Fi-	gla-	-ge-	lu-	0ee	Fi-	gla-	-ge-	lu-
1c	-li-	-di-	-ni-	-ge-	1e	-li-	-di-	-ni-	-cli-	-ci-	-li-	-di-	-ri-	-ge-	-ce-	-li-	-ui-	-xe-	-de-	-ge-	-le-	1cc	-li-	-di-	-ni-	-ge-	1c	-li-	-di-	-ni-	-ge-	1g	-li-	-di-	-ni-	-ge-	1ee	-li-	-di-	-ni-	-ge-
=36-	=36-	=36-	=36-	=36-	=36-	=36-	=36-	=36-	=36-	=36-	=36-	=36-	=36-	=36-	=36-	=36-	=36-	=36-	=36-	=36-	=36-	=36-	=36-	=36-	=36-	=36-	=36-	=36-	=36-	=36-	=36-	=36-	=36-	=36-	=36-	=36-	=36-	=36-	=36-	=36-	=36-
!	!	!	!	!	!	!	!	!	!	!	!	!	!	!	!	!	!	!	!	!	!	!	!	!	!	!	!	!	!	!	!	!	!	!	!	!	!LO:TX:t=P:problem=tylko w księdze C1 pod spodem jest jeszcze polski tekst Planktu 2, również pasyjny, ale ilość sylab jest inna niż w Stabat Mater, więc to raczej nie przynależy do tego utworu.	!	!	!	!
0F;>	-us	-us	-ti	-am	0f;>	-us	-us	-ti	-ti.	-o.	-o	-tu	-tum.	-am,	-at.	-de.	-de.	-ro.	-ro	-re	-re.	0cc;>	-us	-us	-ti.	-am	0f;>	-us	-us	-ti.	-am	0f;>	-us.	-us	-ti	-am	0ff;>	-us	-us	-ti	-am
*	*Xij	*Xij	*Xij	*Xij	*	*Xij	*Xij	*Xij	*Xij	*Xij	*Xij	*Xij	*Xij	*Xij	*Xij	*Xij	*Xij	*Xij	*Xij	*Xij	*Xij	*	*Xij	*Xij	*Xij	*Xij	*	*	*	*	*	*	*Xij	*Xij	*Xij	*Xij	*	*Xij	*Xij	*Xij	*Xij
=-	=-	=-	=-	=-	=-	=-	=-	=-	=-	=-	=-	=-	=-	=-	=-	=-	=-	=-	=-	=-	=-	=-	=-	=-	=-	=-	=-	=-	=-	=-	=-	=-	=-	=-	=-	=-	=-	=-	=-	=-	=-
*-	*-	*-	*-	*-	*-	*-	*-	*-	*-	*-	*-	*-	*-	*-	*-	*-	*-	*-	*-	*-	*-	*-	*-	*-	*-	*-	*-	*-	*-	*-	*-	*-	*-	*-	*-	*-	*-	*-	*-	*-	*-
!!!system-decoration: [(g1)][(g2)]
!!!RDF**kern: > = above
!!!RDF**kern: < = below
!!!ENC: Mateusz Solarz
!!!END: 2021-10-29
!!!EED: Jędrzej Mróz
!!!ESR: 2021-11-09
!!!YEC: Copyright 2022 Narodowy Instytut Fryderyka Chopina (https://polishscores.org)
!!!YEM: License CC-BY-4.0 (https://creativecommons.org/licenses/by/4.0)
